X:1
T:BWV 0796
T:Sinfonia 10    (A = 415 Hz)
T:Johann Sebastian Bach
%%score { ( 1 2 ) | 3 }
L:1/8
Q:1/4=132
M:3/4
K:G
V:1 treble nm="Harp"
V:2 treble 
V:3 bass 
V:1
"^Allegro" z G>FG/A/ B/c/d/B/ | e/d/c/B/ A/G/F/E/ D/c/B/A/ | B2- B/A/B/^c/ d2- | d4 ^c2 | %4
 d2- d/^c/d/e/ f/g/a/f/ | b/a/g/f/ e/d/c/B/ A/g/f/e/ | d2- d/d/e/f/ g2- | gecA f2- | fdBG e2- | %9
 ecAF ^d2 | e2 z2 e2- | e2 dc d2- | d/d/c/B/ A/^G/A/B/ c/d/e/c/ | =f/e/d/c/ B/A/^G/^F/ E/d/c/B/ | %14
 A/^G/A/B/ c/d/e/f/ =g/a/b/g/ | c'/b/a/g/ f/e/^d/^c/ B/a/g/f/ | b/a/g/f/ e/d/^c/B/ A/g/f/e/ | %17
 a/g/f/e/ d/^c/B/A/ G/f/e/d/ | g/f/e/d/ ^c/B/^A/^G/ F/e/d/c/ | f/e/d/^c/ B4- | B4 ^A2 | B2 Bedc | %22
 B=fedcB | c2- cdcB | AedcBA | B2 z2 g2- | g2- g/b/a/g/ f2 | =f2- f/a/g/f/ e2- | e2- e/g/f/e/ d2- | %29
 d2- d/=f/e/d/ c2- | c/c/B/A/ G/F/G/A/ B/c/d/B/ | e/d/c/B/ A/G/F/E/ D/c/B/A/ | !fermata!B6 |] %33
V:2
 z6 | z6 | z D>^CD/E/ F/G/A/F/ | B/A/G/F/ E/D/^C/B,/ A,/G/F/E/ | F/A,/B,/^C/ D/E/F/G/ A/B/=c/A/ | %5
 dBGE c2- | c/c/B/A/ B2- B/A/B/G/ | c4- c/e/d/c/ | B4- B/d/c/B/ | A4- A/=c/B/A/ | %10
 G/A/G/F/ E/^D/E/F/ G/A/B/G/ | c/B/A/G/ F/E/D/C/ B,/A/^G/F/ | E6 | D6 |[I:staff +1] CB, A,C B,E- | %15
 ECA,F, ^D2- | DB,G,E, ^C2- | CA,F,D, B,2- | B,G,E,^C, ^A,2 | %19
 B,2- B,/^A,/B,/[I:staff -1]^C/ D/E/F/D/ | %20
 G/F/E/D/[I:staff +1] ^C/B,/^A,/^G,/ F,/[I:staff -1]E/D/^C/ | D/F/^G/^A/ B=c B=A | G6 | %23
 z/ E/^F/^G/ AB A=G | F6 | z/ D/E/F/ G/F/G/A/ B/c/d/B/ | e/d/c/B/ A/G/F/E/ D/c/B/A/ | %27
 d/c/B/A/ G/=F/E/D/ C/B/A/G/ | c/B/A/G/ F/E/D/C/ B,/A/G/F/ | %29
 B/A/G/F/ E/D/C/B,/[I:staff +1] A,/[I:staff -1]G/^F/E/ | D2 z2 G2- | G4 F2 | G6 |] %33
V:3
 G,,2 B,,2 G,,2 | C,2 D,2 D,,2 | G,,2 G,2 F,2 | G,2 A,2 A,,2 | D,2 z2 z2 | z6 | %6
 z G,>F,G,/A,/ B,/C/D/B,/ | E/D/C/B,/ A,/G,/F,/E,/ D,/C/B,/A,/ | %8
 D/C/B,/A,/ G,/F,/E,/D,/ C,/B,/A,/G,/ | C/B,/A,/G,/ F,/E,/^D,/^C,/ B,,/A,/G,/F,/ | %10
 z E,>^D,E,/G,/ B,E, | A,F, B,3 A, | ^G,A,/B,/ CB, A,C- | CB,/A,/ ^G,B,G,E, | F,^G, A,^D, E,=G, | %15
 A,4- A,/=C/B,/A,/ | G,4- G,/B,/A,/G,/ | F,4- F,/A,/G,/F,/ | E,4- E,/=G,/F,/E,/ | D,2 G,2 F,2 | %20
 E,2 F,2 F,,2 | B,,2- B,,/=A,,/B,,/C,/ D,/E,/=F,/C,/ | %22
 D,/E,/D,/C,/ B,,/A,,/^G,,/^F,,/ E,,/D,/C,/B,,/ | A,,2- A,,/=G,,/A,,/B,,/ C,/D,/E,/B,,/ | %24
 C,/D,/C,/B,,/ A,,/G,,/F,,/E,,/ D,,/C,/B,,/A,,/ | G,,B,, D,F, G,B, | CA, D2- D/E/D/C/ | %27
 B,G, C2- C/D/C/B,/ | A,F, B,2- B,/C/B,/A,/ | G,E, A,2- A,/B,/A,/G,/ | %30
 F,/E,/D,/C,/ B,,/A,,/G,,/F,,/ G,,/A,,/B,,/G,,/ | C,/A,,/B,,/C,/ D,C, D,D,, | !fermata!G,,6 |] %33

